src/images/icons/arrow-bottom.svg

<svg width="22" height="13" viewBox="0 0 22 13" fill="none" xmlns="http://www.w3.org/2000/svg">
<path d="M21.5646 2.57604L11.8127 12.6705C11.6966 12.7903 11.5708 12.875 11.4354 12.9245C11.2999 12.9748 11.1548 13 11 13C10.8452 13 10.7001 12.9748 10.5646 12.9245C10.4292 12.875 10.3034 12.7903 10.1873 12.6705L0.406332 2.57604C0.135444 2.29647 0 1.947 0 1.52765C0 1.10829 0.145119 0.748848 0.435356 0.449309C0.725594 0.14977 1.0642 3.33923e-07 1.45119 3.33923e-07C1.83817 3.33923e-07 2.17678 0.14977 2.46702 0.449309L11 9.25576L19.533 0.449309C19.8039 0.169739 20.1374 0.0299538 20.5337 0.0299538C20.9308 0.0299538 21.2744 0.179723 21.5646 0.479263C21.8549 0.778802 22 1.12826 22 1.52765C22 1.92704 21.8549 2.2765 21.5646 2.57604Z" fill="#111111"/>
</svg>

<svg xmlns="http://www.w3.org/2000/svg" width="22" height="13" fill="none"><path fill="#111" d="m21.565 2.576-9.752 10.095a1.01 1.01 0 0 1-.378.254c-.135.05-.28.075-.435.075-.155 0-.3-.025-.435-.075a1.01 1.01 0 0 1-.378-.255L.407 2.577C.134 2.296 0 1.947 0 1.528c0-.42.145-.78.435-1.079C.725.15 1.065 0 1.451 0c.387 0 .726.15 1.016.45L11 9.255 19.533.449c.27-.28.604-.419 1-.419.398 0 .741.15 1.032.45.29.299.435.648.435 1.048 0 .399-.145.748-.435 1.048Z"/></svg>
